X: 16885
T: Haudanmaan Hääpolska
R: waltz
M: 3/4
K: Eminor
(B,|:.B,)^C/^D/ EF/G/ A/G/F/E/|^D/E/F/G/ .FA AF/=D/|G/F/G/A/ B/c/B/A/ GF/E/|^D/E/F/G/ F/E/D/^C/ D(B,|
.B,)^C/^D/ EF/G/ A/G/F/E/|^D/E/F/G/ .FA AF/=D/|G/F/G/A/ B/c/B/A/ GF/E/|^D/E/F/D/ E2 E2:|
|:BD/C/ .DB (3B/c/B/ A/G/|A/B/A/F/ D/D/F/G/ .AF|G/F/G/A B/c/B/A/ GF/E/|^D/E/F/G/ F/E/D/^C/ DB,|
BD/C/ .DB (3B/c/B/ A/G/|A/B/A/F/ D/D/F/G/ .AF|G/F/G/A B/c/B/A/ GF/E/|^D/E/F/D/ E2 E2:|

